public/assets/images/Pending-dark.svg

<svg width="20" height="20" viewBox="0 0 20 20" fill="none" xmlns="http://www.w3.org/2000/svg">
<rect x="1" y="0.998291" width="18.0033" height="18.0033" rx="9.00167" fill="#FFCC49"/>
<rect x="1" y="0.998291" width="18.0033" height="18.0033" rx="9.00167" stroke="#1F1F1F" stroke-width="2"/>
<path d="M11.5956 7.81485L9.57278 5.79199V7.15686C7.82112 7.37471 6.46069 8.86851 6.46069 10.6824C6.46069 12.4963 7.81667 13.9901 9.57278 14.208V13.3099C8.31016 13.0965 7.34986 12.0028 7.34986 10.6824C7.34986 9.362 8.31016 8.26832 9.57278 8.05492V9.79324L11.5956 7.81485ZM13.5429 10.2378C13.4673 9.61985 13.2228 9.02411 12.8227 8.5084L12.1914 9.1397C12.4314 9.47314 12.5826 9.85104 12.6448 10.2378H13.5429ZM10.4619 13.3054V14.2035C11.0799 14.1279 11.6801 13.8879 12.1958 13.4877L11.5556 12.8475C11.2222 13.0876 10.8487 13.2432 10.4619 13.3054ZM12.1914 12.2296L12.8227 12.8564C13.2228 12.3407 13.4673 11.745 13.5429 11.127H12.6448C12.5826 11.5138 12.4314 11.8917 12.1914 12.2296Z" fill="white"/>
</svg>

<svg width="20" height="20" fill="none" xmlns="http://www.w3.org/2000/svg"><rect x="1" y=".998" width="18.003" height="18.003" rx="9.002" fill="#FFCC49"/><rect x="1" y=".998" width="18.003" height="18.003" rx="9.002" stroke="#1F1F1F" stroke-width="2"/><path d="M11.596 7.815L9.573 5.792v1.365a3.552 3.552 0 000 7.051v-.898a2.666 2.666 0 01-2.223-2.628c0-1.32.96-2.414 2.223-2.627v1.738l2.023-1.978zm1.947 2.423a3.515 3.515 0 00-.72-1.73l-.632.632c.24.333.392.711.454 1.098h.898zm-3.081 3.067v.899a3.522 3.522 0 001.734-.716l-.64-.64c-.334.24-.707.395-1.094.457zm1.73-1.075l.63.626c.4-.515.645-1.111.72-1.729h-.897a2.622 2.622 0 01-.454 1.103z" fill="#fff"/></svg>
